X: 30946
T: Owd Tup, The
R: reel
M: 4/4
K: Gmajor
|:Bc|"G"d2 ed BG G2|"G"dedB "D7"cA A2|"D7"cdcA AF F2|"G"d2 ed dBBc|
"G"d2 ed BG G2|"G"dedB "C"ge e2|"C"geeg "G"dBBd|"D7"dedA "G"BG G2:|
|:GF|"Em"E2 BA GE E2|"Em"E2 eB "D7"cA A2|"D7"A2 cA FD D2|"D7"d2 ed "G"dB B2|
"G"B2 AB "Em"GEEf|"G"g2 fg "C"ec c2|"C"egfg "G"dB B2|"D7"dcAf "G"gG:|

